X:41
T:Ievan polkka
T:Savitaipaleen polkka
T:Finnish Polka
R:polka
D:Kevin Burke: Up Close
O:South Karelia
Z:id:hn-polka-41
M:2/4
L:1/8
K:Bm
B>B Bc|dB Bd|cA Ac|d/c/B/A/ BF|B>B Bc|dB B2|ef/e/ dc|B2 B2:|
|:f>d df|ec cd|ef/e/ dc|Bc de|f>d df|ec cd|ef/e/ dc|B2 B2:|
<end>
<start>
